icon-themes/sifr_svg/cmd/lc_verticaltext.svg

<svg viewBox="0 0 24 24" xmlns="http://www.w3.org/2000/svg"><path d="m3 2c-.554 0-1 .446-1 1v18c0 .554.3794493 1 1 1h3v-2h-2v-5.5c0-.276142.2238576-.5.5-.5h14.5c1.104569 0 2 .895431 2 2h1v-8h-1c0 1.104569-.895431 2-2 2h-14.5c-.2761424 0-.5 0-.5-.5v-5.5h2v-2z" fill="#555753"/></svg>

<svg xmlns="http://www.w3.org/2000/svg" viewBox="0 0 24 24">
  <path
     style="fill:#555753"
     d="M 3 2 C 2.446 2 2 2.446 2 3 L 2 21 C 2 21.554 2.3794493 22 3 22 L 6 22 L 6 20 L 4 20 L 4 14.5 C 4 14.223858 4.2238576 14 4.5 14 L 19 14 C 20.104569 14 21 14.895431 21 16 L 22 16 L 22 8 L 21 8 C 21 9.104569 20.104569 10 19 10 L 4.5 10 C 4.2238576 10 4 10 4 9.5 L 4 4 L 6 4 L 6 2 L 3 2 z "
     />
</svg>
